X: 469
T:Christmas Eve
C:Tommy Coen
S:arr. Paddy O'Brien
Z:Set: Christmas Eve/Bunker Hill/Hunter's Purse
R:reel
E:9
I:speed 350
M:C|
F:http://ceolas.org/pub/tunes/abc.tunes/OBrien.abc
N:Posted to the woodenflute mailing list January 2002
K:G
GE|~D2 DE GFGA|~B2dB ABGB|ABGE DB,DE|~G2BG ABGE|\
FB,DE GFGA|~B2 dB ABGA|*BA~A2 GEBG|ABGE ~G2:|\
GA|BABd edeg|abae ~g2 eg|abag gfge|dedB ~A2 GA|*
BABd edeg|abge ~g2eg|aege ~d2BG|ABGE G2:|\
dc|BG~G2 DGBd|eg~g2 egdc|*BG ~G2 dGBG|EA~A2 DAFA|\
BGGF ~G2Bd|eg~g2 egdg|bgag egdB|ABGE G2:|**

